static/logos/breezy-glyph-color.svg

<svg width="50" height="35" viewBox="0 0 50 35" fill="none" xmlns="http://www.w3.org/2000/svg">
<path fill-rule="evenodd" clip-rule="evenodd" d="M22.9051 0.371379C18.8855 1.45973 15.6295 3.86753 13.5313 7.30346L12.8775 8.37413L10.9501 8.73862C7.5372 9.38378 4.64492 11.1068 2.72865 13.637C0.860471 16.1035 0 18.6336 0 21.659C0 23.9566 0.336188 25.356 1.42816 27.6013C2.94334 30.7172 5.83966 33.1516 9.45241 34.3461C10.5299 34.7023 11.7972 34.7385 25.4435 34.8014C38.2999 34.861 40.4543 34.8259 41.699 34.5374C48.4564 32.9701 51.9659 25.5473 48.856 19.4001C47.6459 17.0082 45.2675 14.9056 42.8712 14.1098C41.8618 13.7744 41.8452 13.7542 41.7043 12.6923C41.6256 12.0997 41.2845 10.8564 40.9462 9.92955C39.3517 5.56037 35.7806 2.15444 31.1557 0.591816C29.1226 -0.0952416 25.0315 -0.204396 22.9051 0.371379ZM38.3106 11.0151C36.9424 7.08068 33.3011 3.91687 29.1343 3.04193C24.4998 2.06892 19.5266 3.9256 16.7826 7.65282L15.8132 8.97014L17.066 9.42378C19.2104 10.2002 20.7705 11.6401 21.7648 13.7608C22.2603 14.8177 22.325 15.2162 22.3212 17.1908C22.3174 19.1611 22.2495 19.5696 21.7473 20.6491C20.0896 24.213 16.1868 26.174 12.7358 25.1771C11.2199 24.7392 10.7291 24.3428 10.7291 23.5562C10.7291 22.6687 11.2797 22.2321 12.1998 22.3897C15.37 22.9329 16.4951 22.7602 17.9616 21.505C21.1356 18.7883 20.2904 13.6236 16.3815 11.8479C15.1333 11.2811 11.894 11.297 10.0088 11.8792C7.17995 12.7531 4.5779 15.1788 3.4723 17.973C3.06058 19.0134 2.98185 19.6047 2.98185 21.659C2.98185 23.7134 3.06058 24.3047 3.4723 25.3452C4.58385 28.1547 7.20038 30.5836 10.0461 31.4476C11.4329 31.8687 11.9036 31.8796 26.4746 31.8236L41.4754 31.766L42.6874 31.1978C44.2311 30.4742 45.5954 29.1101 46.3865 27.4989C46.9404 26.3706 47.0076 26.0152 47.0076 24.2124C47.0076 22.4729 46.9293 22.0242 46.4469 20.9952C45.3399 18.6341 43.6042 17.237 40.9213 16.5467C40.0932 16.3337 39.3663 16.1103 39.3063 16.0501C39.2461 15.9901 39.1087 15.1524 39.001 14.1887C38.8931 13.2248 38.5825 11.7969 38.3106 11.0151Z" fill="#1E8FC6"/>
</svg>

<svg xmlns="http://www.w3.org/2000/svg" width="91.429" height="64" fill="none" viewBox="0 0 50 35"><path fill="#1E8FC6" fill-rule="evenodd" d="M22.905.371c-4.02 1.089-7.276 3.497-9.374 6.932l-.654 1.071-1.927.365c-3.413.645-6.305 2.368-8.221 4.898C.86 16.103 0 18.634 0 21.659c0 2.298.336 3.697 1.428 5.942 1.515 3.116 4.412 5.55 8.024 6.745 1.078.356 2.345.393 15.992.455 12.856.06 15.01.025 16.255-.264 6.757-1.567 10.267-8.99 7.157-15.137-1.21-2.392-3.589-4.494-5.985-5.29-1.01-.336-1.026-.356-1.167-1.418-.078-.592-.42-1.836-.758-2.762-1.594-4.37-5.165-7.776-9.79-9.338-2.033-.687-6.124-.796-8.25-.22Zm15.406 10.644c-1.369-3.934-5.01-7.098-9.177-7.973-4.634-.973-9.607.884-12.351 4.61l-.97 1.318 1.253.454c2.144.776 3.704 2.216 4.699 4.337.495 1.057.56 1.455.556 3.43-.004 1.97-.072 2.379-.574 3.458-1.657 3.564-5.56 5.525-9.011 4.528-1.516-.438-2.007-.834-2.007-1.62 0-.888.55-1.325 1.47-1.167 3.171.543 4.296.37 5.763-.885 3.174-2.717 2.328-7.881-1.58-9.657-1.249-.567-4.488-.551-6.373.031-2.83.874-5.431 3.3-6.537 6.094-.411 1.04-.49 1.632-.49 3.686 0 2.054.079 2.646.49 3.686 1.112 2.81 3.728 5.239 6.574 6.103 1.387.42 1.858.432 16.429.376l15-.058 1.212-.568c1.544-.724 2.908-2.088 3.7-3.7.553-1.127.62-1.483.62-3.286 0-1.74-.078-2.188-.56-3.217-1.107-2.36-2.843-3.758-5.526-4.448-.828-.213-1.555-.437-1.615-.497-.06-.06-.197-.898-.305-1.861-.108-.964-.418-2.392-.69-3.174Z" clip-rule="evenodd"/></svg>
